ashes/src/images/icons/groups.svg

<?xml version="1.0" encoding="UTF-8" standalone="no"?>
<svg width="18px" height="13px" viewBox="0 0 18 13" version="1.1" xmlns="http://www.w3.org/2000/svg" xmlns:xlink="http://www.w3.org/1999/xlink">
    <!-- Generator: Sketch 42 (36781) - http://www.bohemiancoding.com/sketch -->
    <title>Icon_Customer_Groups</title>
    <desc>Created with Sketch.</desc>
    <defs></defs>
    <g id="Page-1" stroke="none" stroke-width="1" fill="none" fill-rule="evenodd">
        <g id="Artboard-Copy" transform="translate(-68.000000, -245.000000)" fill="#FFFFFF">
            <g id="Icon_Customer_Groups" transform="translate(68.000000, 245.000000)">
                <path d="M4.48968982,7.9679881 C5.57787894,7.9679881 6.46018927,6.93552989 6.46018927,5.66176258 C6.46018927,3.89541829 5.57787894,3.35553706 4.48968982,3.35553706 C3.4015007,3.35553706 2.51938189,3.89541829 2.51938189,5.66176258 C2.51938189,6.93552989 3.4015007,7.9679881 4.48968982,7.9679881" id="Fill-1"></path>
                <path d="M4.45368497,12.2992949 C4.36577951,12.0993531 4.32862557,11.8771955 4.4199783,11.6713167 C4.4199783,11.6713167 5.46565106,9.31606328 5.66789106,8.86025721 C5.30516136,9.06115661 4.9039371,9.16725601 4.48968982,9.16725601 C3.95536253,9.16725601 3.44248494,8.9927857 3.0060219,8.66280508 C2.97537947,8.63963175 2.93420372,8.63618448 2.90030553,8.65399539 L1.35765095,9.45701844 C1.25806306,9.50872753 1.17839276,9.59356875 1.13281215,9.69622087 L0.138848489,11.9354161 C0.0702860625,12.0899688 0.084266669,12.2665458 0.176385459,12.4080755 C0.268312735,12.5497967 0.424206072,12.6342549 0.592930925,12.6342549 L4.77562195,12.6342549 C4.58085103,12.6342549 4.52320497,12.4572949 4.45368497,12.2992949" id="Fill-2"></path>
                <path d="M11.7935034,6.42073714 C13.293067,6.42073714 14.5088052,4.99777953 14.5088052,3.24273463 C14.5088052,0.808768507 13.293067,0.064732123 11.7935034,0.064732123 C10.2939397,0.064732123 9.07839297,0.808768507 9.07839297,3.24273463 C9.07839297,4.99777953 10.2939397,6.42073714 11.7935034,6.42073714" id="Fill-3"></path>
                <path d="M17.7892684,11.6713167 L16.419552,8.58562448 C16.356735,8.44428629 16.2468053,8.32727053 16.1096804,8.25583538 L13.9838622,7.1492608 C13.936941,7.12493838 13.880061,7.12972625 13.8379276,7.16151777 C13.2367616,7.61636627 12.5296876,7.85671779 11.7935034,7.85671779 C11.0573191,7.85671779 10.3504366,7.61636627 9.74907905,7.16151777 C9.7067542,7.12972625 9.65006572,7.12493838 9.6031445,7.1492608 L7.47732626,8.25583538 C7.34039293,8.32727053 7.23027171,8.44428629 7.16764626,8.58562448 L5.79773834,11.6713167 C5.70332137,11.88409 5.7226644,12.1275058 5.84963895,12.3226597 C5.97642198,12.5178137 6.19111047,12.6342549 6.42380139,12.6342549 L17.1632053,12.6342549 C17.3960877,12.6342549 17.6107762,12.5176222 17.7375593,12.3226597 C17.8643423,12.1275058 17.8836853,11.88409 17.7892684,11.6713167" id="Fill-4"></path>
            </g>
        </g>
    </g>
</svg>

<svg xmlns="http://www.w3.org/2000/svg" width="18" height="13"><path fill="#FFF" fill-rule="evenodd" d="M4.5 7.97c1.08 0 1.96-1.03 1.96-2.3 0-1.77-.88-2.3-1.97-2.3-1.1 0-2 .53-2 2.3 0 1.27.9 2.3 1.97 2.3m-.03 4.33c-.08-.2-.12-.42-.03-.63l1.26-2.8c-.36.2-.77.3-1.18.3-.55 0-1.07-.18-1.5-.5-.03-.03-.08-.03-.1-.02l-1.55.8c-.1.06-.18.14-.23.25l-1 2.24c-.06.15-.05.33.05.47.1.17.24.25.4.25h4.2c-.2 0-.26-.17-.33-.33m7.36-5.88c1.5 0 2.7-1.42 2.7-3.18C14.5.8 13.3.06 11.8.06c-1.5 0-2.72.75-2.72 3.18 0 1.76 1.2 3.18 2.7 3.18m6.02 5.25L16.4 8.6c-.06-.16-.17-.27-.3-.34l-2.14-1.1c-.04-.04-.1-.03-.14 0-.6.46-1.3.7-2.05.7-.74 0-1.45-.24-2.05-.7-.04-.03-.1-.04-.15 0l-2.12 1.1c-.14.07-.25.18-.3.33L5.8 11.64c-.1.2-.08.46.05.65.13.2.34.3.57.3h10.74c.24 0 .45-.1.58-.3.12-.2.14-.43.05-.64"/></svg>
